X:11
T:AIR XI. Fy gar rub her o'er with Strae.
B:Joseph Mitchell: "The Highland Fair" (1731)
Z:Jack Campin <http://www.campin.me.uk/>
M:C|
L:1/8
K:GDor
A|B3 A G3  d |(cd)(Bc) A2 F2 |B3 A G3  d |(cB)(AB) G2z
A|B3 A G3  d |(cd)(Bc) A2(GF)|B3 c d2 g2 |(dc)(BA) G3||
e|f2d2 d2(cB)|(AB)(cB) A2(GF)|f2d2 d2(ef)|(gf)(df) g3
a|f2d2 d2(cB)|(AB)(cB) A2(GF)|B3 c d2 g2 |(dc)(BA) G3|]
